assets/img/Airdrops/noun_Purse_1614248.svg

<svg width="69" height="59" viewBox="0 0 69 59" fill="none" xmlns="http://www.w3.org/2000/svg">
<path d="M6.50794 0C2.93069 0 0 2.93069 0 6.50794V52.877C0 56.0036 2.56787 58.5714 5.69444 58.5714H62.6389C65.7655 58.5714 68.3333 56.0036 68.3333 52.877V15.4563C68.3333 12.3298 65.7655 9.7619 62.6389 9.7619H58.5714V1.62698C58.5714 0.775095 57.7963 8.13492e-05 56.9444 0H6.50794ZM6.50794 3.25397H55.3175V9.7619H6.50794C4.67709 9.7619 3.25397 8.33878 3.25397 6.50794C3.25397 4.67709 4.67709 3.25397 6.50794 3.25397ZM3.25397 12.1261C4.21299 12.6846 5.32479 13.0159 6.50794 13.0159C24.8311 12.9996 46.8902 13.0159 62.6389 13.0159C64.0191 13.0159 65.0794 14.0762 65.0794 15.4563V23.5913H41.4881C39.2629 23.5913 37.4206 25.4335 37.4206 27.6587V40.6746C37.4206 42.8998 39.2629 44.7421 41.4881 44.7421H65.0794V52.877C65.0794 54.2572 64.0191 55.3175 62.6389 55.3175H5.69444C4.31427 55.3175 3.25397 54.2572 3.25397 52.877V12.1261ZM41.4881 26.8452H65.0794V41.4881H41.4881C41.0093 41.4881 40.6746 41.1534 40.6746 40.6746V27.6587C40.6746 27.1799 41.0093 26.8452 41.4881 26.8452ZM49.623 30.0738C47.3959 30.0738 45.5556 31.9141 45.5556 34.1413C45.5556 36.3684 47.3959 38.2088 49.623 38.2088C51.8501 38.2088 53.6905 36.3684 53.6905 34.1413C53.6905 31.9141 51.8501 30.0738 49.623 30.0738ZM49.623 33.3278C50.0916 33.3278 50.4365 33.6727 50.4365 34.1413C50.4365 34.6098 50.0916 34.9548 49.623 34.9548C49.1544 34.9548 48.8095 34.6098 48.8095 34.1413C48.8095 33.6727 49.1544 33.3278 49.623 33.3278Z" fill="#5e2ced"/>
</svg>

<?xml version="1.0" encoding="utf-8"?>
<!-- Generator: Adobe Illustrator 24.0.1, SVG Export Plug-In . SVG Version: 6.00 Build 0)  -->
<svg version="1.1" id="Слой_1" xmlns="http://www.w3.org/2000/svg" xmlns:xlink="http://www.w3.org/1999/xlink" x="0px" y="0px"
	 viewBox="0 0 69 59" style="enable-background:new 0 0 69 59;" xml:space="preserve">
<style type="text/css">
	.st0{fill:#FFFFFF;}
</style>
<path class="st0" d="M6.5,0C2.9,0,0,2.9,0,6.5v46.4c0,3.1,2.6,5.7,5.7,5.7h56.9c3.1,0,5.7-2.6,5.7-5.7V15.5c0-3.1-2.6-5.7-5.7-5.7
	h-4.1V1.6c0-0.9-0.8-1.6-1.6-1.6H6.5z M6.5,3.3h48.8v6.5H6.5c-1.8,0-3.3-1.4-3.3-3.3C3.3,4.7,4.7,3.3,6.5,3.3z M3.3,12.1
	c1,0.6,2.1,0.9,3.3,0.9c18.3,0,40.4,0,56.1,0c1.4,0,2.4,1.1,2.4,2.4v8.1H41.5c-2.2,0-4.1,1.8-4.1,4.1v13c0,2.2,1.8,4.1,4.1,4.1h23.6
	v8.1c0,1.4-1.1,2.4-2.4,2.4H5.7c-1.4,0-2.4-1.1-2.4-2.4V12.1z M41.5,26.8h23.6v14.6H41.5c-0.5,0-0.8-0.3-0.8-0.8v-13
	C40.7,27.2,41,26.8,41.5,26.8z M49.6,30.1c-2.2,0-4.1,1.8-4.1,4.1c0,2.2,1.8,4.1,4.1,4.1s4.1-1.8,4.1-4.1
	C53.7,31.9,51.9,30.1,49.6,30.1z M49.6,33.3c0.5,0,0.8,0.3,0.8,0.8c0,0.5-0.3,0.8-0.8,0.8c-0.5,0-0.8-0.3-0.8-0.8
	C48.8,33.7,49.2,33.3,49.6,33.3z"/>
</svg>
